X: 1
T:I Think My Brains Fell Out
C: 1999 Harry Bolick -  Harry Bolick -  harry@bolick.net
R:Breakdown
O:United States
A:Brooklyn, New York
M:4/4
L:1/8
Q:450
K:D
|: "D" D2 DD D2 F2 | =F2 ^F2 D4 | "A" E2 E2 E2 E2 |  B,A,B,C DCB,A, |
"D" D2 DD D2 F2 | =F2 ^F2 D4 | "G" B2 AB AF ED | "A" E8 :|
|:"D" d2  dd d2c2 | dBAF EDFA | [1  "G" B2 BB B2 BB| DFAA BAFA :|[2  "D" fedf af e2 | d8 ||
